X: 6
T: Uncle Henry
B: canberra pickers and fiddlers
B: tunes
M:4/4
L:1/8
R: reel
Q: 1/4=100
K:D
V:1 
AB|"D"dBdA Bd-A2|d3 E- D2AB|dBdA Bd-A2|"A"[A3e3](f [A2e2])de|
"D"fdfd e2d2|"G"B2d2 "D"D4- D2|: "D"DE|FDFD B2A2|F6DE|
"D"FDFD B2A2|D6 :|
% abcbook-tune_id 63ae8f1cc1a2567927ffcf37
% abcbook-tune_composer_id 
% abcbook-link-0 https://www.youtube.com/watch?v=6VY0RqlaCXw
% abcbook-boost 8
% abcbook-difficulty 0
% abcbook-tags canberra pickers and fiddlers,old time tunes,© free
% abcbook-tablature 
% abcbook-transpose 
% abcbook-tuning DDAD
% abcbook-lastupdated 1704240339355
% abcbook-src-url https://tunebook.net/scrape/tunes.abc
% abcbook-soundfonts 
% abcbook-repeats 1


